static/fa/svgs/solid/square-pen.svg

<svg xmlns="http://www.w3.org/2000/svg" viewBox="0 0 448 512"><!--! Font Awesome Free 6.1.1 by @fontawesome - https://fontawesome.com License - https://fontawesome.com/license/free (Icons: CC BY 4.0, Fonts: SIL OFL 1.1, Code: MIT License) Copyright 2022 Fonticons, Inc.--><path d="M384 32c35.3 0 64 28.65 64 64v320c0 35.3-28.7 64-64 64H64c-35.35 0-64-28.7-64-64V96c0-35.35 28.65-64 64-64h320zm-58.2 107.7c-15.7-15.6-41-15.6-56.6 0l-21.4 21.4 70.9 71 21.4-21.4c15.7-15.7 15.7-41 0-56.6l-14.3-14.4zM111.5 303.8l-15.02 59.3c-1.37 6.3.23 12.1 4.22 16.1 4 3.9 9.7 5.5 15.2 4.2l60.1-15.1c5.6-1.4 10.8-4.3 14.9-8.4l105.2-105.2-71-70.9-105.2 104.3c-4.1 5-7 10.1-8.4 15.7z"/></svg>

<svg xmlns="http://www.w3.org/2000/svg" viewBox="0 0 448 512"><!--! Font Awesome Free 6.1.1 by @fontawesome - https://fontawesome.com License - https://fontawesome.com/license/free (Icons: CC BY 4.0, Fonts: SIL OFL 1.1, Code: MIT License) Copyright 2022 Fonticons, Inc. --><path d="M384 32C419.3 32 448 60.65 448 96V416C448 451.3 419.3 480 384 480H64C28.65 480 0 451.3 0 416V96C0 60.65 28.65 32 64 32H384zM325.8 139.7C310.1 124.1 284.8 124.1 269.2 139.7L247.8 161.1L318.7 232.1L340.1 210.7C355.8 195 355.8 169.7 340.1 154.1L325.8 139.7zM111.5 303.8L96.48 363.1C95.11 369.4 96.71 375.2 100.7 379.2C104.7 383.1 110.4 384.7 115.9 383.4L176 368.3C181.6 366.9 186.8 364 190.9 359.9L296.1 254.7L225.1 183.8L119.9 288.1C115.8 293.1 112.9 298.2 111.5 303.8z"/></svg>
